X:695
T: Rakes of Drumlish
T: R\'eiceanna Dhroim Lis
S: B.Breathnach:"Ceol Rince na hEireann" IV/47
Z: B.Black
L: 1/8
M: 9/8
R: slipjig
K: Ador
BAG EGG EGG|BAG EGG c2A|BAG EGG EGG|AGE GAB c2A :|
BAB dBG dBG|BAB dBG c2A|BAB dBG dBG|AGE GAB c2A|
BAB dBG dBG|BAB dBG c2A|GBd gfe dBG|AGE GAB c2A ||
